icons/line/eye-off.svg

<svg width="24" height="24" viewBox="0 0 24 24" fill="none" xmlns="http://www.w3.org/2000/svg">
<path fill-rule="evenodd" clip-rule="evenodd" d="M3.70713 2.29289C3.31661 1.90237 2.68344 1.90237 2.29292 2.29289C1.90239 2.68342 1.90239 3.31658 2.29292 3.70711L20.2929 21.7071C20.6834 22.0976 21.3166 22.0976 21.7071 21.7071C22.0977 21.3166 22.0977 20.6834 21.7071 20.2929L18.9291 17.5148C21.2384 15.6586 22.472 13.3289 22.8109 12.6279C23.0029 12.231 23.0043 11.7721 22.8112 11.3727C22.5127 10.7552 21.5502 8.93729 19.8105 7.26191C18.0606 5.57668 15.4828 4 12 4C9.95146 4 8.20786 4.54697 6.7611 5.34686L3.70713 2.29289ZM8.24637 6.83213L9.9682 8.55396C10.5638 8.20225 11.2589 8 12 8C14.2092 8 16 9.79086 16 12C16 12.7411 15.7978 13.4363 15.4461 14.0318L17.5049 16.0907C19.3613 14.6611 20.4627 12.8155 20.8882 12C20.5413 11.335 19.7351 9.96592 18.4232 8.7025C16.9304 7.26494 14.8246 6 12 6C10.5629 6 9.31792 6.32638 8.24637 6.83213ZM13.9325 12.5182C13.9766 12.3531 14 12.1794 14 12C14 10.8954 13.1046 10 12 10C11.8206 10 11.6469 10.0235 11.4818 10.0676L13.9325 12.5182ZM4.64951 8.16076C5.06945 8.51946 5.1191 9.15068 4.7604 9.57062C3.92101 10.5533 3.37889 11.488 3.11187 12C3.45873 12.665 4.26497 14.0341 5.57689 15.2975C7.06964 16.7351 9.17544 18 12 18C12.6393 18 13.2383 17.9355 13.7992 17.8205C14.3402 17.7096 14.8687 18.0583 14.9797 18.5993C15.0906 19.1403 14.7419 19.6688 14.2008 19.7798C13.5086 19.9217 12.775 20 12 20C8.51726 20 5.93949 18.4233 4.18956 16.7381C2.44987 15.0627 1.48737 13.2448 1.18881 12.6273C0.99397 12.2243 0.999603 11.7638 1.18993 11.3704C1.43199 10.8701 2.09644 9.61005 3.23965 8.27165C3.59835 7.85171 4.22956 7.80206 4.64951 8.16076Z" fill="currentColor"/>
</svg>

<svg width="24" height="24" fill="none" xmlns="http://www.w3.org/2000/svg"><path fill-rule="evenodd" clip-rule="evenodd" d="M3.707 2.293a1 1 0 00-1.414 1.414l18 18a1 1 0 001.414-1.414l-2.778-2.778c2.31-1.856 3.543-4.186 3.882-4.887a1.436 1.436 0 000-1.255 15.086 15.086 0 00-3-4.111C18.06 5.577 15.483 4 12 4c-2.049 0-3.792.547-5.239 1.347L3.707 2.293zm4.54 4.54l1.721 1.721a4 4 0 015.478 5.478l2.059 2.059c1.856-1.43 2.958-3.276 3.383-4.091a13.205 13.205 0 00-2.465-3.297C16.93 7.265 14.825 6 12 6a8.689 8.689 0 00-3.754.832zm5.685 5.685a2 2 0 00-2.45-2.45l2.45 2.45zM4.65 8.161a1 1 0 01.11 1.41A13.315 13.315 0 003.112 12a13.203 13.203 0 002.465 3.297C7.07 16.735 9.175 18 12 18c.64 0 1.238-.064 1.8-.18a1 1 0 01.4 1.96c-.691.142-1.425.22-2.2.22-3.483 0-6.06-1.577-7.81-3.262a15.089 15.089 0 01-3.001-4.11 1.44 1.44 0 010-1.258c.243-.5.907-1.76 2.05-3.098a1 1 0 011.41-.111z" fill="currentColor"/></svg>
